database-lock-outline.svg

<svg fill="currentColor" viewBox="0 0 24 24"><path d="M6 12.45V9.64c1.47.83 3.61 1.36 6 1.36s4.53-.53 6-1.36v1.41c.17-.02.33-.05.5-.05.53 0 1.03.1 1.5.26V7c0-2.21-3.58-4-8-4S4 4.79 4 7v10c0 2.21 3.59 4 8 4 .34 0 .67 0 1-.03v-2.02c-.32.05-.65.05-1 .05-3.87 0-6-1.5-6-2v-2.23c1.61.78 3.72 1.23 6 1.23.41 0 .81-.03 1.21-.06.19-.48.47-.91.86-1.24.06-.31.16-.61.27-.9-.74.13-1.53.2-2.34.2-2.42 0-4.7-.6-6-1.55M12 5c3.87 0 6 1.5 6 2s-2.13 2-6 2-6-1.5-6-2 2.13-2 6-2m9 11v-.5a2.5 2.5 0 0 0-5 0v.5c-.55 0-1 .45-1 1v4c0 .55.45 1 1 1h5c.55 0 1-.45 1-1v-4c0-.55-.45-1-1-1m-1 0h-3v-.5c0-.83.67-1.5 1.5-1.5s1.5.67 1.5 1.5z"/></svg>

<svg  viewBox="0 0 24 24" fill="currentColor"><path  d="M6 12.45V9.64C7.47 10.47 9.61 11 12 11S16.53 10.47 18 9.64V11.05C18.17 11.03 18.33 11 18.5 11C19.03 11 19.53 11.1 20 11.26V7C20 4.79 16.42 3 12 3S4 4.79 4 7V17C4 19.21 7.59 21 12 21C12.34 21 12.67 21 13 20.97V18.95C12.68 19 12.35 19 12 19C8.13 19 6 17.5 6 17V14.77C7.61 15.55 9.72 16 12 16C12.41 16 12.81 15.97 13.21 15.94C13.4 15.46 13.68 15.03 14.07 14.7C14.13 14.39 14.23 14.09 14.34 13.8C13.6 13.93 12.81 14 12 14C9.58 14 7.3 13.4 6 12.45M12 5C15.87 5 18 6.5 18 7S15.87 9 12 9 6 7.5 6 7 8.13 5 12 5M21 16V15.5C21 14.12 19.88 13 18.5 13S16 14.12 16 15.5V16C15.45 16 15 16.45 15 17V21C15 21.55 15.45 22 16 22H21C21.55 22 22 21.55 22 21V17C22 16.45 21.55 16 21 16M20 16H17V15.5C17 14.67 17.67 14 18.5 14S20 14.67 20 15.5V16Z"/></svg>
